X:1
T:1
T:1
T:4 Verses
%%score { ( 1 3 ) | ( 2 4 ) }
L:1/8
Q:1/2=80
M:2/2
K:G
V:1 treble nm="Piano" snm="Pno."
V:3 treble 
V:2 bass 
V:4 bass 
V:1
"G" [DG]4 | [DG]4"D" F4 |"Em" [B,E]4"Bm" [B,D]4 |"Em" [B,G]4"D" [DA]4 |"G" !fermata![DB]4 [DB]4 | %5
 [DB]4 [GB]4 |"D" [FA]4"Em" G4 |"C" [Gc]4"G" [GB]4 |"D" !fermata![FA]4"Em" G4 |"D" [FA]4"G" [GB]4 | %10
"D" [FA]4"G" [DG]4 |"C" E4"D" [DF]4 |"G" !fermata![DG]4 [Dd]4 | [DB]4"Em" G4 |"D" [FA]4"Am" c4 | %15
"G" [GB]4"D" [FA]4 |"G" !fermata!G4 |] %17
V:2
 [G,B,]4 | [G,B,]4 [D,A,]4 | [E,G,]4 [B,,F,]4 | [E,G,]4 [D,F,]4 | [G,,G,]4 G,4 | [G,B,]4 [G,D]4 | %6
 (D2 C2) x4 | [C,E]4 [G,,D]4 | [D,D]4 [E,B,]4 | [D,D]4 [G,D]4 | [D,D]4 [B,,D]4 | (C2 B,2) x4 | %12
 [G,,B,]4 [G,B,]4 | G,4 [E,B,]4 | [D,D]4 [A,,E]4 | D4 (D2 C2) | [G,,B,]4 |] %17
V:3
 x4 | x4 (D2 C2) | x8 | x8 | x8 | x8 | x8 | x8 | x8 | x8 | x8 | x8 | x8 | x8 | x4 (E2 F2) | x8 | %16
 x4 |] %17
V:4
 x4 | x8 | x8 | x8 | x8 | x8 | D,4 [E,B,]4 | x8 | x8 | x8 | x8 | C,4 [D,A,]4 | x8 | x8 | x8 | %15
 (B,,2 C,2) D,4 | x4 |] %17

